!!! OTL: Berkowitz161
!!! Chapter: 1
!!! Section: I
!!! Page: 36
!!! Mode: 
!!! Encoder: DJB
**kern
*staff1
*I"Piano
=1-
*clefC3
*k[f#]
*e:
*M3/4
4b\
4g\
4e\
=2
4a\
4f#\
4d#\
=3
4B/
8c#\L
8d#\J
8e\L
8f#\J
=4
2g\
4e\
=5
4ee\
4cc\
4a\
=6
4b\
4g\
4e\
=7
8a\L
8f#\J
8d#\L
8B\J
8c#\L
8d#\J
=8
2.e\
==
*-
